!!!COM: Mozart, Wolfgang Amadeus
!!!OTL: Musikalische Würfelspiele, Kontre-Tänze
!!!SCA: K<sup>6</sup> Anh. C30.01 (K<sup>3</sup> Anh. 294d)
**kern	**kern
*staff2	*staff2
*clefF4	*clefG2
*M2/4	*M2/4
*MM110	*MM110
*>[A,A1,A,A2,B]	*>[A,A1,A,A2,B]
*>norep[A,A2,B]	*>norep[A,A2,B]
*>A	*>A
=7	=7
4C	8cc
.	8cc
4C	8ee
.	8ee
=68	=68
4C	8gg
.	16gg
.	16ee
4r	8cc
.	16cc
.	16ee
=57	=57
8G	8ff
16GG	8ff
16AA	.
16BB	8dd
16C	.
16D	8dd
16BB	.
=35	=35
4C	16cc
.	16dd
.	16ee
.	16dd
4CC	16cc
.	16ee
.	16gg
.	16cc
=77	=77
4D	8d
.	16f#
.	16a
4D	8dd
.	8ff#
=92	=92
4G	8gg
.	8dd
4r	8b
.	8g
=137	=137
4C	8ee
.	8ccc
4D	16bb
.	16aa
.	16gg
.	16ff#
=115	=115
*>A1	*>A1
4GG	4g 4b 4gg
16G	4r
16F	.
16E	.
16D	.
=115:|!	=115:|!
*>A2	*>A2
4GG	4g 4b 4gg
16GG	4r
16AA	.
16BB	.
16C#	.
=136||	=136||
*>B	*>B
4D	8dd
.	16ff#
.	16aa
4F#	8ddd
.	8ddd
=34	=34
8G	16gg
.	16bb
8r	16gg
.	16dd
8GG	16b
.	16gg
8r	16dd
.	16b
=138	=138
16C	8gg
16E	.
16G	4ee
16E	.
16C	.
16E	.
16G	8cc
16E	.
=173	=173
4GG	16b
.	16g
.	16d
.	16B
4r	16G
.	16g
.	16b
.	16dd
=94	=94
16C	8cc
16E	.
16G	8ee
16E	.
16C	8gg
16E	.
16G	8ee
16E	.
=101	=101
16C	8gg
16G	.
16E	4ee
16G	.
16C	.
16G	.
16E	8cc
16G	.
=109	=109
16GG	8dd
16D	.
16BB	4ff
16D	.
16GG	.
16D	.
16BB	8b
16D	.
=146	=146
4C	4cc
4CC	4c
==	==
*-	*-
